src/assets/logo-text.svg

<svg width="196" height="25" viewBox="0 0 196 25" fill="none" xmlns="http://www.w3.org/2000/svg">
<path d="M16.6458 0.159998L14.8458 6.172H6.13375L7.78975 0.231999L16.6458 0.159998ZM23.4138 18.844L18.3738 24.964H0.87775L5.52175 8.548H14.2698L11.3898 18.808L23.4138 18.844ZM51.0828 6.208H27.3588C27.8388 4.576 28.6548 3.196 29.8068 2.068C31.2228 0.7 32.6868 0.0159998 34.1988 0.0159998H46.4388C49.5348 0.0159998 51.0828 1.66 51.0828 4.948C51.0828 5.764 51.0828 6.184 51.0828 6.208ZM50.5788 8.512L50.4348 9.088C50.0508 10.336 49.3908 12.616 48.4548 15.928C47.8548 18.016 46.9308 19.768 45.6828 21.184C43.4268 23.728 40.4028 25 36.6108 25H32.3268C30.0228 25 28.1988 24.568 26.8548 23.704C25.1988 22.672 24.3708 21.076 24.3708 18.916C24.3708 17.764 24.5508 16.54 24.9108 15.244L26.7108 8.584H35.0988L32.6148 17.332C32.5188 17.74 32.4708 18.052 32.4708 18.268C32.4708 18.748 32.6868 19.048 33.1188 19.168H38.3388C38.9868 19 39.4668 18.388 39.7788 17.332L42.3708 8.548L50.5788 8.512ZM76.5149 0.159998L74.7869 6.208H51.4229L55.2749 0.159998H76.5149ZM74.2829 8.548L72.3029 15.136H60.7469L58.0469 24.964H48.5789L53.1509 8.548H74.2829ZM102.46 0.159998L100.804 6.136H76.8276L80.6436 0.159998H102.46ZM93.1356 8.548L88.7796 24.964H80.5356L84.9996 8.548H93.1356Z" fill="white"/>
<path d="M128.792 0.159998L127.136 6.136H103.16L106.976 0.159998H128.792ZM119.468 8.548L115.112 24.964H106.868L111.332 8.548H119.468ZM150.984 6.208H135.432L140.616 0.159998H149.688L150.984 6.208ZM155.016 24.964H145.98L143.532 15.172H138.42L131.184 24.964H120.636L133.524 8.512H151.488L155.016 24.964ZM185.421 0.196L179.625 6.172L162.201 6.136L160.761 0.267999H169.797L170.481 3.076L173.145 0.231999L185.421 0.196ZM177.393 8.548L173.037 13.336L175.485 25L166.125 24.964L165.441 21.94L162.741 25H150.536L163.173 11.032L162.669 8.62L177.393 8.548ZM195.114 0.159998L193.458 6.208H184.782L186.51 0.159998H195.114ZM192.918 8.548L188.418 24.964H179.67L184.242 8.548H192.918Z" fill="#FDBF5A"/>
</svg>

<?xml version="1.0" encoding="UTF-8" standalone="no"?><svg version="1.1" xmlns="http://www.w3.org/2000/svg" fill="none" viewBox="0 0 196 25"><path fill="#fff" d="M16.6458.16l-1.8 6.012h-8.712l1.656-5.94 8.856-.072zm6.768 18.684l-5.04 6.12H.8778l4.644-16.416h8.748l-2.88 10.26 12.024.036zm27.669-12.636h-23.724c.48-1.632 1.296-3.012 2.448-4.14C31.2228.7 32.6868.016 34.1988.016h12.24c3.096 0 4.644 1.644 4.644 4.932v1.26zm-.504 2.304l-.144.576c-.384 1.248-1.044 3.528-1.98 6.84-.6 2.088-1.524 3.84-2.772 5.256-2.256 2.544-5.28 3.816-9.072 3.816h-4.284c-2.304 0-4.128-.432-5.472-1.296-1.656-1.032-2.484-2.628-2.484-4.788 0-1.152.18-2.376.54-3.672l1.8-6.66h8.388l-2.484 8.748c-.096.408-.144.72-.144.936 0 .48.216.78.648.9h5.22c.648-.168 1.128-.78 1.44-1.836l2.592-8.784 8.208-.036zM76.5149.16l-1.728 6.048h-23.364L55.2749.16h21.24zm-2.232 8.388l-1.98 6.588h-11.556l-2.7 9.828h-9.468l4.572-16.416h21.132zM102.46.16l-1.656 5.976H76.8276L80.6436.16H102.46zm-9.3244 8.388l-4.356 16.416h-8.244l4.464-16.416h8.136z"/><path fill="#FDBF5A" d="M128.792.16l-1.656 5.976H103.16L106.976.16h21.816zm-9.324 8.388l-4.356 16.416h-8.244l4.464-16.416h8.136zm31.516-2.34h-15.552L140.616.16h9.072l1.296 6.048zm4.032 18.756h-9.036l-2.448-9.792h-5.112l-7.236 9.792h-10.548l12.888-16.452h17.964l3.528 16.452zM185.421.196l-5.796 5.976-17.424-.036-1.44-5.868h9.036l.684 2.808 2.664-2.844 12.276-.036zm-8.028 8.352l-4.356 4.788L175.485 25l-9.36-.036-.684-3.024-2.7 3.06h-12.205l12.637-13.968-.504-2.412 14.724-.072zM195.114.16l-1.656 6.048h-8.676L186.51.16h8.604zm-2.196 8.388l-4.5 16.416h-8.748l4.572-16.416h8.676z"/></svg>
